X:15939
T:Star of Munster, The
R:reel
H:More often played in Ador, see #11
D:Frankie Gavin & Alec Finn
Z:id:hn-reel-626
M:C|
K:Edor
G2EG FEDF|EGFE DB,A,=C|B,E~E2 GFGA|Beef edBA|
G2EG FEDF|EGFE DB,A,=C|B,E~E2 GABA|1 GEFD E2EF:|2 GEFD E2EB||
|:Beef edBd|gBfB edB^c|d2d^c dAFA|dfe^c dAFA|
Beef edBd|gBfB edB^c|d2d2 e2e2|1 f3e dBAd:|2 f3e dBAF||
